X: 205
T: A Glint Of Silver
R: reel
M: 4/4
K: Edorian
|:FBB/B/B dcBA|F2 EF DB,A,D|Eee/e/e fedB|e2ef dBAE|
FBB/B/B dcBA|F2EC DB,A,D|B,EE/E/E FEDB,|A,B,B,/B,/B, DEE/E/E:|
|:FDD/D/D B,DA,D|FDD/D/D BDAD|Eee/e/e fedB|e2 ef dBAb|
abec d2cd|BdAF B3 A|FABc d2cd|BdAF FE E2:|

